server/views/icons/other/cc_by.svg

<svg viewBox="0 0 26 26"><path fill="#1d1d1d" class="icon__shape" d="M13 9a1.34 1.34 0 0 0 1.51-1.51A1.35 1.35 0 0 0 13 6a1.35 1.35 0 0 0-1.51 1.53A1.34 1.34 0 0 0 13 9z"/><path fill="#1d1d1d" class="icon__shape" d="M20.74 5.29A10.5 10.5 0 0 0 13 2.14a10.41 10.41 0 0 0-7.63 3.15A10.65 10.65 0 0 0 2.17 13a10.46 10.46 0 0 0 3.2 7.67A10.52 10.52 0 0 0 13 23.88a10.74 10.74 0 0 0 7.78-3.24A10.25 10.25 0 0 0 23.9 13a10.51 10.51 0 0 0-3.16-7.71zm-1.36 14a8.72 8.72 0 0 1-6.33 2.66 8.58 8.58 0 0 1-6.29-2.64A8.54 8.54 0 0 1 4.13 13a8.74 8.74 0 0 1 2.66-6.3 8.46 8.46 0 0 1 6.27-2.6 8.57 8.57 0 0 1 6.29 2.6 8.59 8.59 0 0 1 2.59 6.3 8.28 8.28 0 0 1-2.56 6.24z"/><path fill="#1d1d1d" class="icon__shape" d="M15.27 9.62H10.8a.7.7 0 0 0-.7.7v4.44h1.24V20h3.38v-5.24H16v-4.45a.66.66 0 0 0-.21-.49.68.68 0 0 0-.52-.2z"/></svg>

<svg viewBox="0 0 26 26">
  <path fill="#1d1d1d" class="icon__shape" d="M13,9a1.34,1.34,0,0,0,1.51-1.51A1.35,1.35,0,0,0,13,6a1.35,1.35,0,0,0-1.51,1.53A1.34,1.34,0,0,0,13,9Z"/>
  <path fill="#1d1d1d" class="icon__shape" d="M20.74,5.29A10.5,10.5,0,0,0,13,2.14,10.41,10.41,0,0,0,5.37,5.29,10.65,10.65,0,0,0,2.17,13a10.46,10.46,0,0,0,3.2,7.67A10.52,10.52,0,0,0,13,23.88a10.74,10.74,0,0,0,7.78-3.24A10.25,10.25,0,0,0,23.9,13,10.51,10.51,0,0,0,20.74,5.29Zm-1.36,14a8.72,8.72,0,0,1-6.33,2.66,8.58,8.58,0,0,1-6.29-2.64A8.54,8.54,0,0,1,4.13,13,8.74,8.74,0,0,1,6.79,6.7a8.46,8.46,0,0,1,6.27-2.6,8.57,8.57,0,0,1,6.29,2.6A8.59,8.59,0,0,1,21.94,13,8.28,8.28,0,0,1,19.38,19.24Z"/>
  <path fill="#1d1d1d" class="icon__shape" d="M15.27,9.62H10.8a.7.7,0,0,0-.7.7v4.44h1.24V20h3.38V14.76H16V10.31a.66.66,0,0,0-.21-.49A.68.68,0,0,0,15.27,9.62Z"/>
</svg>
